; generated by Slic3r 1.0.0RC1 on 2014-01-19 at 13:24:29

; layer_height = 0.33
; perimeters = 3
; top_solid_layers = 3
; bottom_solid_layers = 3
; fill_density = 0.95
; perimeter_speed = 22
; infill_speed = 20
; travel_speed = 70
; nozzle_diameter = 0.5
; filament_diameter = 2.90
; extrusion_multiplier = 1
; perimeters extrusion width = 0.50mm
; infill extrusion width = 0.62mm
; solid infill extrusion width = 0.62mm
; top infill extrusion width = 0.62mm
; first layer extrusion width = 1.00mm

G21 ; set units to millimeters
M107
M104 S180 ; set temperature
G28 ; home all axes
G1 Z5 F5000 ; lift nozzle
M109 S180 ; wait for temperature to be reached
G90 ; use absolute coordinates
G92 E0
M82 ; use absolute distances for extrusion
G1 F1800.000 E-1.00000
G92 E0
G1 Z0.500 F4200.000
G1 X68.240 Y66.110 F4200.000
G1 E1.00000 F1800.000
G1 X69.290 Y65.260 E1.09129 F396.000
G1 X70.470 Y64.630 E1.18168
G1 X71.760 Y64.240 E1.27275
G1 X73.100 Y64.110 E1.36373
G1 X116.000 Y64.110 E4.26272
G1 X117.340 Y64.240 E4.35369
G1 X118.640 Y64.630 E4.44541
G1 X119.830 Y65.270 E4.53672
G1 X120.870 Y66.130 E4.62791
G1 X121.730 Y67.170 E4.71910
G1 X122.370 Y68.360 E4.81041
G1 X122.760 Y69.660 E4.90213
G1 X122.890 Y71.000 E4.99310
G1 X122.890 Y127.000 E8.77733
G1 X122.750 Y128.400 E8.87241
G1 X122.330 Y129.740 E8.96730
G1 X121.640 Y130.960 E9.06202
G1 X120.720 Y132.020 E9.15686
G1 X119.600 Y132.880 E9.25229
G1 X118.340 Y133.480 E9.34659
G1 X116.970 Y133.820 E9.44198
G1 X102.970 Y135.820 E10.39764
G1 X102.000 Y135.890 E10.46336
G1 X72.720 Y135.890 E12.44197
G1 X71.380 Y135.760 E12.53295
G1 X70.080 Y135.370 E12.62466
G1 X68.890 Y134.730 E12.71597
G1 X67.850 Y133.870 E12.80716
G1 X66.990 Y132.830 E12.89836
G1 X66.350 Y131.640 E12.98967
G1 X65.960 Y130.340 E13.08138
G1 X65.830 Y129.000 E13.17236
G1 X65.830 Y125.950 E13.37846
G1 X66.210 Y70.950 E17.09520
G1 X66.350 Y69.610 E17.18625
G1 X66.750 Y68.330 E17.27687
G1 X67.390 Y67.150 E17.36758
G1 X68.155 Y66.214 E17.44930
G1 F1800.000 E16.44930
G92 E0
G1 X106.315 Y95.815 F4200.000
G1 E1.00000 F1800.000
G1 X107.248 Y95.099 E1.07946 F540.000
G1 X108.334 Y94.649 E1.15892
G1 X109.500 Y94.496 E1.23838
G1 X110.666 Y94.649 E1.31784
G1 X111.611 Y95.041 E1.38697
G1 X111.752 Y95.099 E1.39730
G1 X112.685 Y95.815 E1.47676
G1 X113.401 Y96.748 E1.55622
G1 X113.851 Y97.834 E1.63568
G1 X114.004 Y99.000 E1.71514
G1 X113.851 Y100.166 E1.79460
G1 X113.401 Y101.252 E1.87405
G1 X112.685 Y102.185 E1.95351
G1 X111.752 Y102.901 E2.03297
G1 X110.666 Y103.351 E2.11243
G1 X109.500 Y103.504 E2.19189
G1 X108.334 Y103.351 E2.27135
G1 X107.248 Y102.901 E2.35081
G1 X106.315 Y102.185 E2.43027
G1 X105.599 Y101.252 E2.50973
G1 X105.149 Y100.166 E2.58919
G1 X104.996 Y99.000 E2.66865
G1 X105.149 Y97.834 E2.74811
G1 X105.599 Y96.748 E2.82757
G1 X106.233 Y95.921 E2.89798
G1 X106.122 Y94.943 F4200.000
G1 X105.042 Y94.542 F4200.000
G1 X104.040 Y95.847 E3.00921 F396.000
G1 X103.558 Y97.010 E3.09422
G1 X103.410 Y97.368 E3.12043
G1 X103.195 Y99.000 E3.23166
G1 X103.410 Y100.632 E3.34289
G1 X103.891 Y101.794 E3.42790
G1 X104.040 Y102.153 E3.45411
G1 X105.042 Y103.458 E3.56534
G1 X106.347 Y104.460 E3.67657
G1 X107.868 Y105.090 E3.78779
G1 X109.500 Y105.305 E3.89902
G1 X111.132 Y105.090 E4.01025
G1 X112.653 Y104.460 E4.12147
G1 X113.715 Y103.645 E4.21194
G1 X113.715 Y124.715 E5.63569
G1 X101.285 Y124.715 E6.47560
G1 X101.285 Y73.285 E9.95096
G1 X113.715 Y73.285 E10.79087
G1 X113.715 Y94.355 E12.21462
G1 X112.653 Y93.540 E12.30509
G1 X111.132 Y92.910 E12.41631
G1 X109.500 Y92.695 E12.52754
G1 X107.868 Y92.910 E12.63877
G1 X106.347 Y93.540 E12.74999
G1 X105.148 Y94.460 E12.85217
G1 X105.678 Y95.178 F4200.000
G1 X104.819 Y96.298 E12.94752 F396.000
G1 X104.279 Y97.601 E13.04286
G1 X104.095 Y99.000 E13.13820
G1 X104.279 Y100.399 E13.23354
G1 X104.819 Y101.702 E13.32889
G1 X105.514 Y102.607 E13.40596
G1 X105.678 Y102.822 E13.42423
G1 X106.798 Y103.681 E13.51957
G1 X108.101 Y104.221 E13.61492
G1 X109.500 Y104.405 E13.71026
G1 X110.899 Y104.221 E13.80560
G1 X112.202 Y103.681 E13.90095
G1 X113.322 Y102.822 E13.99629
G1 X114.391 Y101.428 E14.11498
G1 X114.607 Y101.502 E14.13042
G1 X114.607 Y125.607 E15.75937
G1 X100.393 Y125.607 E16.71993
G1 X100.393 Y72.393 E20.31593
G1 X114.607 Y72.393 E21.27649
G1 X114.607 Y96.498 E22.90544
G1 X114.391 Y96.572 E22.92088
G1 X113.322 Y95.178 E23.03957
G1 X112.202 Y94.319 E23.13492
G1 X110.899 Y93.779 E23.23026
G1 X109.500 Y93.595 E23.32560
G1 X108.101 Y93.779 E23.42095
G1 X106.798 Y94.319 E23.51629
G1 X105.785 Y95.097 E23.60259
G1 X99.500 Y73.500 F4200.000
G1 X73.601 Y73.500 E25.35270 F277.200
G1 X73.601 Y71.500 E25.48785
G1 X115.500 Y71.500 E28.31918
G1 X115.500 Y126.500 E32.03583
G1 X101.500 Y126.500 E32.98189
G1 X101.500 Y128.500 E33.11704
G1 X73.226 Y128.500 E35.02764
G1 X73.226 Y126.500 E35.16279
G1 X99.500 Y126.500 E36.93824
G1 X99.500 Y73.634 E40.51069
G1 X99.500 Y72.607 F4200.000
G1 X113.022 Y73.887 F4200.000
G1 X113.113 Y73.978 E40.51941 F1080.000
G1 X113.113 Y75.254 E40.60663
G1 X111.746 Y73.887 E40.73868
G1 X110.469 Y73.887 E40.82590
G1 X113.113 Y76.531 E41.08129
G1 X113.113 Y77.807 E41.16850
G1 X109.193 Y73.887 E41.54723
G1 X107.916 Y73.887 E41.63445
G1 X113.113 Y79.084 E42.13651
G1 X113.113 Y80.360 E42.22373
G1 X106.640 Y73.887 E42.84913
G1 X105.364 Y73.887 E42.93634
G1 X113.113 Y81.636 E43.68508
G1 X113.113 Y82.913 E43.77230
G1 X104.087 Y73.887 E44.64437
G1 X102.811 Y73.887 E44.73159
G1 X113.113 Y84.189 E45.72700
G1 X113.113 Y85.466 E45.81421
G1 X101.887 Y74.241 E46.89883
G1 X101.887 Y75.517 E46.98605
G1 X113.113 Y86.742 E48.07067
G1 X113.113 Y88.019 E48.15788
G1 X101.887 Y76.794 E49.24250
G1 X101.887 Y78.070 E49.32971
G1 X113.113 Y89.295 E50.41433
G1 X113.113 Y90.572 E50.50155
G1 X101.887 Y79.346 E51.58617
G1 X101.887 Y80.623 E51.67338
G1 X113.113 Y91.848 E52.75800
G1 X113.034 Y93.046 E52.84002
G1 X101.887 Y81.899 E53.91706
G1 X101.887 Y83.176 E54.00427
G1 X110.996 Y92.285 E54.88440
G1 X109.526 Y92.091 E54.98570
G1 X101.887 Y84.452 E55.72380
G1 X101.887 Y85.729 E55.81101
G1 X108.392 Y92.233 E56.43953
G1 X107.353 Y92.471 E56.51233
G1 X101.887 Y87.005 E57.04048
G1 X101.887 Y88.282 E57.12770
G1 X106.451 Y92.845 E57.56864
G1 X105.647 Y93.318 E57.63234
G1 X101.887 Y89.558 E57.99564
G1 X101.887 Y90.835 E58.08285
G1 X104.925 Y93.872 E58.37636
G1 X104.298 Y94.522 E58.43804
G1 X101.887 Y92.111 E58.67096
G1 X101.887 Y93.387 E58.75817
G1 X103.744 Y95.244 E58.93755
G1 X103.295 Y96.072 E59.00188
G1 X101.887 Y94.664 E59.13789
G1 X101.887 Y95.940 E59.22510
G1 X102.921 Y96.974 E59.32499
G1 X101.887 Y97.217 E59.39755
G1 X102.714 Y98.043 E59.47737
G1 X101.887 Y98.493 E59.54166
G1 X102.617 Y99.223 E59.61215
G1 X101.887 Y99.770 E59.67444
G1 X102.810 Y100.693 E59.76363
G1 X101.887 Y101.046 E59.83116
G1 X113.113 Y112.271 E60.91578
G1 X113.113 Y113.548 E61.00299
G1 X101.887 Y102.323 E62.08761
G1 X101.887 Y103.599 E62.17483
G1 X113.113 Y114.824 E63.25945
G1 X113.113 Y116.101 E63.34666
G1 X101.887 Y104.876 E64.43128
G1 X101.887 Y106.152 E64.51849
G1 X113.113 Y117.377 E65.60311
G1 X113.113 Y118.654 E65.69033
G1 X101.887 Y107.428 E66.77495
G1 X101.887 Y108.705 E66.86216
G1 X113.113 Y119.930 E67.94678
G1 X113.113 Y121.206 E68.03399
G1 X101.887 Y109.981 E69.11861
G1 X101.887 Y111.258 E69.20583
G1 X113.113 Y122.483 E70.29045
G1 X113.113 Y123.759 E70.37766
G1 X101.887 Y112.534 E71.46228
G1 X101.887 Y113.811 E71.54949
G1 X112.189 Y124.113 E72.54491
G1 X110.913 Y124.113 E72.63212
G1 X101.887 Y115.087 E73.50420
G1 X101.887 Y116.364 E73.59141
G1 X109.636 Y124.113 E74.34015
G1 X108.360 Y124.113 E74.42737
G1 X101.887 Y117.640 E75.05277
G1 X101.887 Y118.916 E75.13998
G1 X107.084 Y124.113 E75.64205
G1 X105.807 Y124.113 E75.72926
G1 X101.887 Y120.193 E76.10799
G1 X101.887 Y121.469 E76.19521
G1 X104.531 Y124.113 E76.45060
G1 X103.254 Y124.113 E76.53781
G1 X101.887 Y122.746 E76.66987
G1 X101.887 Y124.022 E76.75708
G1 X101.978 Y124.113 E76.76581
G1 X113.113 Y110.995 F4200.000
G1 X107.807 Y105.690 E77.27843 F1080.000
G1 X109.277 Y105.883 E77.37973
G1 X113.113 Y109.718 E77.75031
G1 X113.113 Y108.442 E77.83752
G1 X110.457 Y105.786 E78.09411
G1 X111.526 Y105.579 E78.16850
G1 X113.113 Y107.165 E78.32182
G1 X113.113 Y105.889 E78.40903
G1 X112.428 Y105.205 E78.47513
G1 X114.359 Y100.761 F4200.000
G1 X114.301 Y100.703 E78.47817 F360.000
G1 X114.476 Y100.184 E78.49847 F360.000
G1 X114.878 Y100.587 E78.51958 F360.000
G1 X114.878 Y99.894 E78.54529 F360.000
G1 X114.556 Y99.572 E78.56217 F360.000
G1 X114.878 Y99.201 E78.58039 F360.000
G1 X114.625 Y98.947 E78.59369 F360.000
G1 X114.878 Y98.508 E78.61251 F360.000
G1 X114.519 Y98.149 E78.63132 F360.000
G1 X114.878 Y97.815 E78.64951 F360.000
G1 X114.331 Y97.268 E78.67821 F360.000
G1 X114.834 Y97.078 E78.69816 F360.000
G1 X114.878 Y97.122 E78.70046 F360.000
G1 X99.493 Y72.493 F4200.000
G1 X99.400 Y72.400 E78.70973 F360.000
G1 X98.284 Y72.600 E78.78959 F360.000
G1 X98.084 Y72.400 E78.80955 F360.000
G1 X96.968 Y72.600 E78.88941 F360.000
G1 X96.768 Y72.400 E78.90937 F360.000
G1 X95.652 Y72.600 E78.98923 F360.000
G1 X95.452 Y72.400 E79.00919 F360.000
G1 X94.336 Y72.600 E79.08905 F360.000
G1 X94.135 Y72.400 E79.10901 F360.000
G1 X93.020 Y72.600 E79.18887 F360.000
G1 X92.819 Y72.400 E79.20883 F360.000
G1 X91.704 Y72.600 E79.28868 F360.000
G1 X91.503 Y72.400 E79.30865 F360.000
G1 X90.387 Y72.600 E79.38850 F360.000
G1 X90.187 Y72.400 E79.40846 F360.000
G1 X89.071 Y72.600 E79.48832 F360.000
G1 X88.871 Y72.400 E79.50828 F360.000
G1 X87.755 Y72.600 E79.58814 F360.000
G1 X87.555 Y72.400 E79.60810 F360.000
G1 X86.439 Y72.600 E79.68796 F360.000
G1 X86.239 Y72.400 E79.70792 F360.000
G1 X85.123 Y72.600 E79.78778 F360.000
G1 X84.923 Y72.400 E79.80774 F360.000
G1 X83.807 Y72.600 E79.88760 F360.000
G1 X83.607 Y72.400 E79.90756 F360.000
G1 X82.491 Y72.600 E79.98742 F360.000
G1 X82.290 Y72.400 E80.00738 F360.000
G1 X81.175 Y72.600 E80.08724 F360.000
G1 X80.974 Y72.400 E80.10720 F360.000
G1 X79.859 Y72.600 E80.18706 F360.000
G1 X79.658 Y72.400 E80.20702 F360.000
G1 X78.543 Y72.600 E80.28687 F360.000
G1 X78.342 Y72.400 E80.30684 F360.000
G1 X77.226 Y72.600 E80.38669 F360.000
G1 X77.026 Y72.400 E80.40666 F360.000
G1 X75.910 Y72.600 E80.48651 F360.000
G1 X75.710 Y72.400 E80.50647 F360.000
G1 X74.501 Y72.507 E80.59197 F360.000
G1 X74.594 Y72.600 E80.60124 F360.000
G1 F1800.000 E79.60124
G92 E0
G1 X62.771 Y68.000 F4200.000
G1 X75.323 Y127.400 F4200.000
G1 E1.00000 F1800.000
G1 X75.523 Y127.600 E1.01969 F360.000
G1 X76.627 Y127.400 E1.09801 F360.000
G1 X76.827 Y127.600 E1.11770 F360.000
G1 X77.931 Y127.400 E1.19602 F360.000
G1 X78.130 Y127.600 E1.21571 F360.000
G1 X79.235 Y127.400 E1.29403 F360.000
G1 X79.434 Y127.600 E1.31372 F360.000
G1 X80.539 Y127.400 E1.39205 F360.000
G1 X80.738 Y127.600 E1.41174 F360.000
G1 X81.842 Y127.400 E1.49006 F360.000
G1 X82.042 Y127.600 E1.50975 F360.000
G1 X83.146 Y127.400 E1.58807 F360.000
G1 X83.346 Y127.600 E1.60776 F360.000
G1 X84.450 Y127.400 E1.68608 F360.000
G1 X84.650 Y127.600 E1.70577 F360.000
G1 X85.754 Y127.400 E1.78409 F360.000
G1 X85.954 Y127.600 E1.80378 F360.000
G1 X87.058 Y127.400 E1.88210 F360.000
G1 X87.257 Y127.600 E1.90179 F360.000
G1 X88.362 Y127.400 E1.98011 F360.000
G1 X88.561 Y127.600 E1.99980 F360.000
G1 X89.666 Y127.400 E2.07812 F360.000
G1 X89.865 Y127.600 E2.09781 F360.000
G1 X90.969 Y127.400 E2.17614 F360.000
G1 X91.169 Y127.600 E2.19583 F360.000
G1 X92.273 Y127.400 E2.27415 F360.000
G1 X92.473 Y127.600 E2.29384 F360.000
G1 X93.577 Y127.400 E2.37216 F360.000
G1 X93.777 Y127.600 E2.39185 F360.000
G1 X94.881 Y127.400 E2.47017 F360.000
G1 X95.080 Y127.600 E2.48986 F360.000
G1 X96.185 Y127.400 E2.56818 F360.000
G1 X96.384 Y127.600 E2.58787 F360.000
G1 X97.489 Y127.400 E2.66619 F360.000
G1 X97.688 Y127.600 E2.68588 F360.000
G1 X98.793 Y127.400 E2.76420 F360.000
G1 X98.992 Y127.600 E2.78389 F360.000
G1 X100.096 Y127.400 E2.86221 F360.000
G1 X100.296 Y127.600 E2.88191 F360.000
G1 X100.600 Y126.600 E2.95485 F360.000
G1 X100.508 Y126.508 E2.96395 F360.000
G1 X75.323 Y127.400 F4200.000
G1 X74.127 Y127.508 E3.04779 F360.000
G1 X74.219 Y127.600 E3.05689 F360.000
G1 F1800.000 E2.05689
G92 E0
G1 Z0.830 F4200.000
G1 X72.017 Y128.500 F4200.000
G1 X106.137 Y102.363 F4200.000
G1 E1.00000 F1800.000
G1 X105.381 Y101.378 E1.03102 F1800
G1 X104.906 Y100.231 E1.06204
G1 X104.744 Y99.000 E1.09305
G1 X104.906 Y97.769 E1.12407
G1 X105.381 Y96.622 E1.15509
G1 X106.137 Y95.637 E1.18611
G1 X107.122 Y94.881 E1.21712
G1 X107.964 Y94.532 E1.23989
G1 X108.269 Y94.406 E1.24814
G1 X109.500 Y94.244 E1.27916
G1 X110.731 Y94.406 E1.31018
G1 X111.878 Y94.881 E1.34120
G1 X112.863 Y95.637 E1.37221
G1 X113.619 Y96.622 E1.40323
G1 X114.094 Y97.769 E1.43425
G1 X114.256 Y99.000 E1.46527
G1 X114.094 Y100.231 E1.49628
G1 X113.619 Y101.378 E1.52730
G1 X112.863 Y102.363 E1.55832
G1 X111.878 Y103.119 E1.58934
G1 X110.731 Y103.594 E1.62036
G1 X109.500 Y103.756 E1.65137
G1 X108.269 Y103.594 E1.68239
G1 X107.122 Y103.119 E1.71341
G1 X106.196 Y102.409 E1.74255
G1 X106.493 Y102.007 F4200.000
G1 X105.818 Y101.126 E1.77028 F1800
G1 X105.393 Y100.101 E1.79801
G1 X105.248 Y99.000 E1.82574
G1 X105.393 Y97.899 E1.85347
G1 X105.494 Y97.655 E1.86007
G1 X105.818 Y96.874 E1.88120
G1 X106.493 Y95.993 E1.90893
G1 X107.374 Y95.318 E1.93666
G1 X108.399 Y94.893 E1.96439
G1 X109.500 Y94.748 E1.99211
G1 X110.601 Y94.893 E2.01984
G1 X111.626 Y95.318 E2.04757
G1 X112.507 Y95.993 E2.07530
G1 X113.182 Y96.874 E2.10303
G1 X113.607 Y97.899 E2.13076
G1 X113.752 Y99.000 E2.15849
G1 X113.607 Y100.101 E2.18622
G1 X113.182 Y101.126 E2.21395
G1 X112.507 Y102.007 E2.24168
G1 X111.626 Y102.682 E2.26940
G1 X110.601 Y103.107 E2.29713
G1 X109.500 Y103.252 E2.32486
G1 X108.399 Y103.107 E2.35259
G1 X107.374 Y102.682 E2.38032
G1 X106.553 Y102.052 E2.40618
G1 X106.235 Y102.064 F4200.000
G1 X105.539 Y102.406 F4200.000
G1 X105.780 Y102.720 E2.41607 F1320
G1 X106.870 Y103.556 E2.45038
G1 X108.138 Y104.082 E2.48468
G1 X109.500 Y104.261 E2.51899
G1 X110.862 Y104.082 E2.55330
G1 X112.130 Y103.556 E2.58760
G1 X113.220 Y102.720 E2.62191
G1 X114.056 Y101.630 E2.65622
G1 X114.505 Y100.547 E2.68550
G1 X114.750 Y100.596 E2.69175
G1 X114.750 Y125.750 E3.32010
G1 X100.750 Y125.750 E3.66982
G1 X100.750 Y127.750 E3.71979
G1 X72.767 Y127.750 E4.41880
G1 X72.767 Y127.250 E4.43129
G1 X100.250 Y127.250 E5.11782
G1 X100.250 Y72.750 E6.47925
G1 X73.101 Y72.750 E7.15743
M106 S255
G1 X72.702 Y72.750 E7.16928 F3600
G1 X72.702 Y72.250 E7.18415
G1 X73.101 Y72.250 E7.19600
M107
G1 X114.750 Y72.250 E8.23640 F1320
G1 X114.750 Y97.404 E8.86475
G1 X114.505 Y97.453 E8.87100
G1 X114.056 Y96.370 E8.90029
G1 X113.220 Y95.280 E8.93459
G1 X112.130 Y94.444 E8.96890
G1 X110.862 Y93.918 E9.00320
G1 X109.500 Y93.739 E9.03751
G1 X109.107 Y93.791 E9.04740
G1 X108.138 Y93.918 E9.07182
G1 X106.870 Y94.444 E9.10612
G1 X105.780 Y95.280 E9.14043
G1 X104.944 Y96.370 E9.17474
G1 X104.418 Y97.638 E9.20904
G1 X104.239 Y99.000 E9.24335
G1 X104.418 Y100.362 E9.27766
G1 X104.944 Y101.630 E9.31196
G1 X105.493 Y102.346 E9.33450
G1 X101.250 Y126.250 F4200.000
G1 X101.250 Y128.250 E9.38446 F1320
G1 X72.726 Y128.250 E10.09699
M106 S255
G1 X72.267 Y128.250 E10.11064 F3600
G1 X72.267 Y126.750 E10.15523
G1 X72.726 Y126.750 E10.16888
M107
G1 X99.750 Y126.750 E10.84393 F1320
G1 X99.750 Y73.250 E12.18038
G1 X73.101 Y73.250 E12.84607
M106 S255
G1 X72.202 Y73.250 E12.87279 F3600
G1 X72.202 Y71.750 E12.91738
G1 X73.101 Y71.750 E12.94410
M107
G1 X115.250 Y71.750 E13.99699 F1320
G1 X115.250 Y126.250 E15.35842
G1 X101.325 Y126.250 E15.70627
G1 X101.750 Y126.750 F4200.000
G1 X101.750 Y128.750 E15.75623 F924
G1 X72.726 Y128.750 E16.48125
M106 S255
G1 X71.767 Y128.750 E16.50976 F3600
G1 X71.767 Y126.250 E16.58407
G1 X72.726 Y126.250 E16.61258
M107
G1 X99.250 Y126.250 E17.27515 F924
G1 X99.250 Y73.750 E18.58662
G1 X73.101 Y73.750 E19.23982
M106 S255
G1 X71.702 Y73.750 E19.28140 F3600
G1 X71.702 Y71.250 E19.35572
G1 X73.101 Y71.250 E19.39730
M107
G1 X115.750 Y71.250 E20.46268 F924
G1 X115.750 Y126.750 E21.84909
G1 X101.825 Y126.750 E22.19694
G1 X101.250 Y126.750 F4200.000
G1 X114.396 Y125.336 F4200.000
