; generated by Slic3r 1.0.0RC1 on 2014-01-19 at 09:39:58

; layer_height = 0.33
; perimeters = 3
; top_solid_layers = 3
; bottom_solid_layers = 3
; fill_density = 0.9
; perimeter_speed = 20
; infill_speed = 20
; travel_speed = 70
; nozzle_diameter = 0.5
; filament_diameter = 2.90
; extrusion_multiplier = 1
; perimeters extrusion width = 0.50mm
; infill extrusion width = 0.62mm
; solid infill extrusion width = 0.62mm
; top infill extrusion width = 0.62mm
; first layer extrusion width = 1.00mm

G21 ; set units to millimeters
M107
M104 S180 ; set temperature
G28 ; home all axes
G1 Z5 F5000 ; lift nozzle
M109 S180 ; wait for temperature to be reached
G90 ; use absolute coordinates
G92 E0
M82 ; use absolute distances for extrusion
G1 F1800.000 E-1.00000
G92 E0
G1 Z0.500 F4200.000
G1 X36.560 Y72.130 F4200.000
G1 E1.00000 F1800.000
G1 X37.860 Y71.740 E1.09172 F360.000
G1 X39.200 Y71.610 E1.18269
G1 X98.370 Y71.610 E5.18113
G1 X138.570 Y72.610 E7.89851
G1 X139.890 Y72.770 E7.98836
G1 X141.160 Y73.180 E8.07854
G1 X142.320 Y73.830 E8.16840
G1 X143.330 Y74.690 E8.25804
G1 X144.170 Y75.720 E8.34786
G1 X144.780 Y76.900 E8.43762
G1 X145.160 Y78.180 E8.52785
G1 X145.290 Y79.500 E8.61748
G1 X145.290 Y124.500 E11.65837
G1 X145.160 Y125.820 E11.74801
G1 X144.780 Y127.100 E11.83823
G1 X144.170 Y128.280 E11.92800
G1 X143.330 Y129.310 E12.01781
G1 X142.320 Y130.170 E12.10745
G1 X141.160 Y130.820 E12.19731
G1 X139.890 Y131.230 E12.28749
G1 X138.570 Y131.390 E12.37734
G1 X98.360 Y132.390 E15.09539
G1 X39.200 Y132.390 E19.09316
G1 X37.860 Y132.260 E19.18414
G1 X36.560 Y131.870 E19.27585
G1 X35.370 Y131.230 E19.36716
G1 X34.330 Y130.370 E19.45835
G1 X33.470 Y129.330 E19.54955
G1 X32.830 Y128.140 E19.64085
G1 X32.440 Y126.840 E19.73257
G1 X32.310 Y125.500 E19.82355
G1 X32.310 Y78.500 E22.99960
G1 X32.440 Y77.160 E23.09057
G1 X32.830 Y75.860 E23.18229
G1 X33.470 Y74.670 E23.27359
G1 X34.330 Y73.630 E23.36479
G1 X35.370 Y72.770 E23.45598
G1 X36.442 Y72.193 E23.53824
G1 F1800.000 E22.53824
G92 E0
G1 X41.485 Y80.785 F4200.000
G1 E1.00000 F1800.000
G1 X98.118 Y80.785 E4.82701 F360.000
G1 X112.118 Y81.785 E5.77548
G1 X116.915 Y81.785 E6.09958
G1 X116.915 Y122.215 E8.83160
G1 X112.118 Y122.215 E9.15570
G1 X98.118 Y123.215 E10.10417
G1 X41.485 Y123.215 E13.93117
G1 X41.485 Y80.919 E16.78930
G1 X40.593 Y79.893 F4200.000
G1 X98.150 Y79.893 E20.67878 F360.000
G1 X112.150 Y80.893 E21.62725
G1 X117.807 Y80.893 E22.00952
G1 X117.807 Y123.107 E24.86220
G1 X112.150 Y123.107 E25.24447
G1 X98.150 Y124.107 E26.19294
G1 X40.593 Y124.107 E30.08242
G1 X40.593 Y80.027 E33.06120
G1 X39.700 Y79.000 F4200.000
G1 X98.182 Y79.000 E37.01316 F252.000
G1 X112.182 Y80.000 E37.96163
G1 X137.910 Y80.000 E39.70017
G1 X137.910 Y82.000 E39.83532
G1 X118.700 Y82.000 E41.13341
G1 X118.700 Y122.000 E43.83643
G1 X137.910 Y122.000 E45.13453
G1 X137.910 Y124.000 E45.26968
G1 X112.182 Y124.000 E47.00822
G1 X98.182 Y125.000 E47.95668
G1 X39.700 Y125.000 E51.90864
G1 X39.700 Y79.134 E55.00807
G1 X40.473 Y79.446 F4200.000
G1 X42.177 Y122.612 F4200.000
G1 X42.088 Y122.523 E55.01670 F1080.000
G1 X42.088 Y121.253 E55.10298
G1 X43.447 Y122.612 E55.23364
G1 X44.717 Y122.612 E55.31993
G1 X42.088 Y119.983 E55.57261
G1 X42.088 Y118.714 E55.65890
G1 X45.986 Y122.612 E56.03362
G1 X47.256 Y122.612 E56.11990
G1 X42.088 Y117.444 E56.61665
G1 X42.088 Y116.174 E56.70293
G1 X48.526 Y122.612 E57.32170
G1 X49.795 Y122.612 E57.40799
G1 X42.088 Y114.905 E58.14879
G1 X42.088 Y113.635 E58.23508
G1 X51.065 Y122.612 E59.09790
G1 X52.335 Y122.612 E59.18419
G1 X42.088 Y112.365 E60.16905
G1 X42.088 Y111.096 E60.25534
G1 X53.604 Y122.612 E61.36222
G1 X54.874 Y122.612 E61.44851
G1 X42.088 Y109.826 E62.67742
G1 X42.088 Y108.556 E62.76371
G1 X56.144 Y122.612 E64.11465
G1 X57.413 Y122.612 E64.20094
G1 X42.088 Y107.287 E65.67391
G1 X42.088 Y106.017 E65.76019
G1 X58.683 Y122.612 E67.35519
G1 X59.953 Y122.612 E67.44148
G1 X42.088 Y104.747 E69.15851
G1 X42.088 Y103.478 E69.24479
G1 X61.222 Y122.612 E71.08385
G1 X62.492 Y122.612 E71.17013
G1 X42.088 Y102.208 E73.13122
G1 X42.088 Y100.938 E73.21751
G1 X63.762 Y122.612 E75.30062
G1 X65.031 Y122.612 E75.38690
G1 X42.088 Y99.669 E77.59204
G1 X42.088 Y98.399 E77.67833
G1 X66.301 Y122.612 E80.00550
G1 X67.571 Y122.612 E80.09179
G1 X42.088 Y97.129 E82.54099
G1 X42.088 Y95.860 E82.62727
G1 X68.840 Y122.612 E85.19850
G1 X70.110 Y122.612 E85.28479
G1 X42.088 Y94.590 E87.97804
G1 X42.088 Y93.320 E88.06433
G1 X71.380 Y122.612 E90.87961
G1 X72.649 Y122.612 E90.96590
G1 X42.088 Y92.051 E93.90321
G1 X42.088 Y90.781 E93.98949
G1 X73.919 Y122.612 E97.04883
G1 X75.189 Y122.612 E97.13512
G1 X42.088 Y89.511 E100.31649
G1 X42.088 Y88.242 E100.40278
G1 X76.458 Y122.612 E103.70617
G1 X77.728 Y122.612 E103.79246
G1 X42.088 Y86.972 E107.21788
G1 X42.088 Y85.702 E107.30417
G1 X78.998 Y122.612 E110.85162
G1 X80.267 Y122.612 E110.93791
G1 X42.088 Y84.433 E114.60739
G1 X42.088 Y83.163 E114.69368
G1 X81.537 Y122.612 E118.48519
G1 X82.807 Y122.612 E118.57148
G1 X42.088 Y81.893 E122.48501
G1 X42.852 Y81.388 E122.54728
G1 X84.076 Y122.612 E126.50941
G1 X85.346 Y122.612 E126.59570
G1 X44.121 Y81.388 E130.55783
G1 X45.391 Y81.388 E130.64412
G1 X86.616 Y122.612 E134.60625
G1 X87.885 Y122.612 E134.69254
G1 X46.661 Y81.388 E138.65467
G1 X47.930 Y81.388 E138.74096
G1 X89.155 Y122.612 E142.70310
G1 X90.425 Y122.612 E142.78938
G1 X49.200 Y81.388 E146.75152
G1 X50.470 Y81.388 E146.83780
G1 X91.694 Y122.612 E150.79994
G1 X92.964 Y122.612 E150.88622
G1 X51.739 Y81.388 E154.84836
G1 X53.009 Y81.388 E154.93464
G1 X94.234 Y122.612 E158.89678
G1 X95.503 Y122.612 E158.98306
G1 X54.279 Y81.388 E162.94520
G1 X55.548 Y81.388 E163.03148
G1 X96.773 Y122.612 E166.99362
G1 X98.043 Y122.612 E167.07990
G1 X56.818 Y81.388 E171.04204
G1 X58.088 Y81.388 E171.12832
G1 X99.231 Y122.531 E175.08267
G1 X100.416 Y122.447 E175.16341
G1 X59.357 Y81.388 E179.10962
G1 X60.627 Y81.388 E179.19591
G1 X101.601 Y122.362 E183.13398
G1 X102.786 Y122.277 E183.21472
G1 X61.897 Y81.388 E187.14467
G1 X63.166 Y81.388 E187.23095
G1 X103.971 Y122.193 E191.15276
G1 X105.156 Y122.108 E191.23350
G1 X64.436 Y81.388 E195.14717
G1 X65.706 Y81.388 E195.23345
G1 X106.341 Y122.023 E199.13899
G1 X107.526 Y121.939 E199.21973
G1 X66.975 Y81.388 E203.11713
G1 X68.245 Y81.388 E203.20342
G1 X108.711 Y121.854 E207.09268
G1 X109.896 Y121.769 E207.17342
G1 X69.515 Y81.388 E211.05455
G1 X70.784 Y81.388 E211.14084
G1 X111.081 Y121.685 E215.01383
G1 X112.279 Y121.612 E215.09534
G1 X72.054 Y81.388 E218.96136
G1 X73.324 Y81.388 E219.04765
G1 X113.548 Y121.612 E222.91367
G1 X114.818 Y121.612 E222.99996
G1 X74.593 Y81.388 E226.86598
G1 X75.863 Y81.388 E226.95227
G1 X116.088 Y121.612 E230.81829
G1 X116.312 Y120.567 E230.89093
G1 X77.133 Y81.388 E234.65652
G1 X78.402 Y81.388 E234.74281
G1 X116.312 Y119.298 E238.38637
G1 X116.312 Y118.028 E238.47266
G1 X79.672 Y81.388 E241.99419
G1 X80.942 Y81.388 E242.08048
G1 X116.312 Y116.758 E245.47998
G1 X116.312 Y115.489 E245.56627
G1 X82.211 Y81.388 E248.84375
G1 X83.481 Y81.388 E248.93004
G1 X116.312 Y114.219 E252.08548
G1 X116.312 Y112.949 E252.17177
G1 X84.751 Y81.388 E255.20519
G1 X86.020 Y81.388 E255.29148
G1 X116.312 Y111.680 E258.20287
G1 X116.312 Y110.410 E258.28916
G1 X87.290 Y81.388 E261.07852
G1 X88.560 Y81.388 E261.16481
G1 X116.312 Y109.140 E263.83215
G1 X116.312 Y107.871 E263.91843
G1 X89.829 Y81.388 E266.46374
G1 X91.099 Y81.388 E266.55003
G1 X116.312 Y106.601 E268.97331
G1 X116.312 Y105.331 E269.05959
G1 X92.369 Y81.388 E271.36084
G1 X93.638 Y81.388 E271.44713
G1 X116.312 Y104.062 E273.62635
G1 X116.312 Y102.792 E273.71264
G1 X94.908 Y81.388 E275.76983
G1 X96.178 Y81.388 E275.85612
G1 X116.312 Y101.522 E277.79129
G1 X116.312 Y100.253 E277.87757
G1 X97.447 Y81.388 E279.69071
G1 X98.765 Y81.435 E279.78030
G1 X116.312 Y98.983 E281.46682
G1 X116.312 Y97.713 E281.55311
G1 X100.132 Y81.533 E283.10822
G1 X101.499 Y81.631 E283.20138
G1 X116.312 Y96.444 E284.62507
G1 X116.312 Y95.174 E284.71136
G1 X102.867 Y81.728 E286.00364
G1 X104.234 Y81.826 E286.09680
G1 X116.312 Y93.904 E287.25766
G1 X116.312 Y92.635 E287.34395
G1 X105.601 Y81.924 E288.37340
G1 X106.969 Y82.021 E288.46656
G1 X116.312 Y91.365 E289.36460
G1 X116.312 Y90.095 E289.45088
G1 X108.336 Y82.119 E290.21750
G1 X109.703 Y82.217 E290.31066
G1 X116.312 Y88.826 E290.94587
G1 X116.312 Y87.556 E291.03215
G1 X111.071 Y82.314 E291.53594
G1 X112.414 Y82.388 E291.62735
G1 X116.312 Y86.286 E292.00206
G1 X116.312 Y85.017 E292.08835
G1 X113.683 Y82.388 E292.34103
G1 X114.953 Y82.388 E292.42732
G1 X116.312 Y83.747 E292.55797
G1 X116.312 Y82.477 E292.64426
G1 X116.223 Y82.388 E292.65289
G1 X118.707 Y81.007 F4200.000
G1 X119.908 Y80.900 E292.73733 F360.000
G1 X120.108 Y81.100 E292.75712 F360.000
G1 X121.217 Y80.900 E292.83601 F360.000
G1 X121.417 Y81.100 E292.85580 F360.000
G1 X122.525 Y80.900 E292.93468 F360.000
G1 X122.725 Y81.100 E292.95447 F360.000
G1 X123.833 Y80.900 E293.03335 F360.000
G1 X124.033 Y81.100 E293.05314 F360.000
G1 X125.142 Y80.900 E293.13202 F360.000
G1 X125.342 Y81.100 E293.15181 F360.000
G1 X126.450 Y80.900 E293.23070 F360.000
G1 X126.650 Y81.100 E293.25049 F360.000
G1 X127.759 Y80.900 E293.32937 F360.000
G1 X127.958 Y81.100 E293.34916 F360.000
G1 X129.067 Y80.900 E293.42804 F360.000
G1 X129.267 Y81.100 E293.44783 F360.000
G1 X130.375 Y80.900 E293.52671 F360.000
G1 X130.575 Y81.100 E293.54650 F360.000
G1 X131.684 Y80.900 E293.62539 F360.000
G1 X131.883 Y81.100 E293.64518 F360.000
G1 X132.992 Y80.900 E293.72406 F360.000
G1 X133.192 Y81.100 E293.74385 F360.000
G1 X134.300 Y80.900 E293.82273 F360.000
G1 X134.500 Y81.100 E293.84252 F360.000
G1 X135.609 Y80.900 E293.92140 F360.000
G1 X135.808 Y81.100 E293.94119 F360.000
G1 X136.917 Y80.900 E294.02008 F360.000
G1 X137.009 Y80.993 E294.02924 F360.000
G1 X118.800 Y81.100 F4200.000
G1 X118.707 Y81.007 E294.03840 F360.000
G1 F1800.000 E293.03840
G92 E0
G1 X140.792 Y74.611 F4200.000
G1 X119.908 Y122.900 F4200.000
G1 E1.00000 F1800.000
G1 X120.108 Y123.100 E1.01979 F360.000
G1 X121.217 Y122.900 E1.09867 F360.000
G1 X121.417 Y123.100 E1.11846 F360.000
G1 X122.525 Y122.900 E1.19734 F360.000
G1 X122.725 Y123.100 E1.21713 F360.000
G1 X123.833 Y122.900 E1.29602 F360.000
G1 X124.033 Y123.100 E1.31581 F360.000
G1 X125.142 Y122.900 E1.39469 F360.000
G1 X125.342 Y123.100 E1.41448 F360.000
G1 X126.450 Y122.900 E1.49336 F360.000
G1 X126.650 Y123.100 E1.51315 F360.000
G1 X127.759 Y122.900 E1.59203 F360.000
G1 X127.958 Y123.100 E1.61182 F360.000
G1 X129.067 Y122.900 E1.69071 F360.000
G1 X129.267 Y123.100 E1.71050 F360.000
G1 X130.375 Y122.900 E1.78938 F360.000
G1 X130.575 Y123.100 E1.80917 F360.000
G1 X131.684 Y122.900 E1.88805 F360.000
G1 X131.883 Y123.100 E1.90784 F360.000
G1 X132.992 Y122.900 E1.98672 F360.000
G1 X133.192 Y123.100 E2.00651 F360.000
G1 X134.300 Y122.900 E2.08540 F360.000
G1 X134.500 Y123.100 E2.10519 F360.000
G1 X135.609 Y122.900 E2.18407 F360.000
G1 X135.808 Y123.100 E2.20386 F360.000
G1 X136.917 Y122.900 E2.28274 F360.000
G1 X137.009 Y122.993 E2.29190 F360.000
G1 X119.908 Y122.900 F4200.000
G1 X118.707 Y123.007 E2.37635 F360.000
G1 X118.800 Y123.100 E2.38551 F360.000
G1 F1800.000 E1.38551
G92 E0
G1 Z0.830 F4200.000
G1 X117.950 Y122.750 F4200.000
G1 E1.00000 F1800.000
G1 X137.507 Y122.750 E1.48855 F1200
G1 X137.507 Y123.250 E1.50104
G1 X112.155 Y123.250 E2.13434
G1 X98.155 Y124.250 E2.48496
G1 X40.450 Y124.250 E3.92646
G1 X40.450 Y79.750 E5.03808
G1 X98.155 Y79.750 E6.47958
G1 X112.155 Y80.750 E6.83020
G1 X137.507 Y80.750 E7.46350
G1 X137.507 Y81.250 E7.47599
G1 X117.950 Y81.250 E7.96454
G1 X117.950 Y122.675 E8.99935
G1 X118.450 Y122.250 F4200.000
G1 X138.007 Y122.250 E9.48790 F1200
G1 X138.007 Y123.750 E9.52537
G1 X112.173 Y123.750 E10.17071
G1 X98.173 Y124.750 E10.52133
G1 X39.950 Y124.750 E11.97576
G1 X39.950 Y79.250 E13.11237
G1 X98.173 Y79.250 E14.56680
G1 X112.173 Y80.250 E14.91742
G1 X138.007 Y80.250 E15.56277
G1 X138.007 Y81.750 E15.60024
G1 X118.450 Y81.750 E16.08879
G1 X118.450 Y122.175 E17.09862
G1 X118.950 Y121.750 F4200.000
G1 X138.410 Y121.750 E17.58472 F840
M106 S255
G1 X138.507 Y121.750 E17.58763 F3600
G1 X138.507 Y124.250 E17.66195
G1 X138.410 Y124.250 E17.66485
M107
G1 X112.191 Y124.250 E18.31980 F840
G1 X98.191 Y125.250 E18.67042
G1 X39.450 Y125.250 E20.13779
G1 X39.450 Y78.750 E21.29937
G1 X98.191 Y78.750 E22.76674
G1 X112.191 Y79.750 E23.11736
G1 X138.410 Y79.750 E23.77230
M106 S255
G1 X138.507 Y79.750 E23.77521 F3600
G1 X138.507 Y82.250 E23.84953
G1 X138.410 Y82.250 E23.85244
M107
G1 X118.950 Y82.250 E24.33854 F840
G1 X118.950 Y121.675 E25.32339
G1 X118.950 Y122.250 F4200.000
G1 X117.596 Y122.836 F4200.000
G1 X117.536 Y122.896 E25.32593 F3600
G1 X116.689 Y122.896 E25.35129
G1 X117.596 Y121.989 E25.38969
G1 X117.596 Y121.142 E25.41505
G1 X115.842 Y122.896 E25.48932
G1 X114.994 Y122.896 E25.51468
G1 X117.596 Y120.294 E25.62481
G1 X117.596 Y119.447 E25.65017
G1 X114.147 Y122.896 E25.79616
G1 X113.300 Y122.896 E25.82152
G1 X117.596 Y118.600 E26.00338
G1 X117.596 Y117.753 E26.02874
G1 X112.453 Y122.896 E26.24647
G1 X111.564 Y122.937 E26.27310
G1 X117.596 Y116.905 E26.52844
G1 X117.596 Y116.058 E26.55380
G1 X110.652 Y123.003 E26.84776
G1 X109.739 Y123.068 E26.87514
G1 X117.596 Y115.211 E27.20773
G1 X117.596 Y114.364 E27.23309
G1 X108.827 Y123.133 E27.60430
G1 X107.914 Y123.198 E27.63168
G1 X117.596 Y113.516 E28.04152
G1 X117.596 Y112.669 E28.06688
G1 X107.002 Y123.263 E28.51533
G1 X106.089 Y123.328 E28.54272
G1 X117.596 Y111.822 E29.02980
G1 X117.596 Y110.974 E29.05516
G1 X105.177 Y123.394 E29.58086
G1 X104.264 Y123.459 E29.60824
G1 X117.596 Y110.127 E30.17257
G1 X117.596 Y109.280 E30.19793
G1 X103.352 Y123.524 E30.80089
G1 X102.440 Y123.589 E30.82827
G1 X117.596 Y108.433 E31.46985
G1 X117.596 Y107.585 E31.49521
G1 X101.527 Y123.654 E32.17541
G1 X100.615 Y123.720 E32.20279
G1 X117.596 Y106.738 E32.92161
G1 X117.596 Y105.891 E32.94697
G1 X99.702 Y123.785 E33.70442
G1 X98.790 Y123.850 E33.73180
G1 X117.596 Y105.044 E34.52787
G1 X117.596 Y104.196 E34.55323
G1 X97.896 Y123.896 E35.38713
G1 X97.049 Y123.896 E35.41249
G1 X117.596 Y103.349 E36.28224
G1 X117.596 Y102.502 E36.30760
G1 X96.202 Y123.896 E37.21323
G1 X95.355 Y123.896 E37.23859
G1 X117.596 Y101.655 E38.18007
G1 X117.596 Y100.807 E38.20543
G1 X94.507 Y123.896 E39.18279
G1 X93.660 Y123.896 E39.20815
G1 X117.596 Y99.960 E40.22136
G1 X117.596 Y99.113 E40.24672
G1 X92.813 Y123.896 E41.29581
G1 X91.965 Y123.896 E41.32117
G1 X117.596 Y98.265 E42.40611
G1 X117.596 Y97.418 E42.43147
G1 X91.118 Y123.896 E43.55229
G1 X90.271 Y123.896 E43.57765
G1 X117.596 Y96.571 E44.73432
G1 X117.596 Y95.724 E44.75968
G1 X89.424 Y123.896 E45.95222
G1 X88.576 Y123.896 E45.97758
G1 X117.596 Y94.876 E47.20599
G1 X117.596 Y94.029 E47.23135
G1 X87.729 Y123.896 E48.49562
G1 X86.882 Y123.896 E48.52098
G1 X117.596 Y93.182 E49.82112
G1 X117.596 Y92.335 E49.84648
G1 X86.035 Y123.896 E51.18248
G1 X85.187 Y123.896 E51.20784
G1 X117.596 Y91.487 E52.57971
G1 X117.596 Y90.640 E52.60507
G1 X84.340 Y123.896 E54.01280
G1 X83.493 Y123.896 E54.03816
G1 X117.596 Y89.793 E55.48175
G1 X117.596 Y88.945 E55.50711
G1 X82.645 Y123.896 E56.98657
G1 X81.798 Y123.896 E57.01193
G1 X117.596 Y88.098 E58.52726
G1 X117.596 Y87.251 E58.55262
G1 X80.951 Y123.896 E60.10381
G1 X80.104 Y123.896 E60.12917
G1 X117.596 Y86.404 E61.71622
G1 X117.596 Y85.556 E61.74158
G1 X79.256 Y123.896 E63.36450
G1 X78.409 Y123.896 E63.38986
G1 X117.596 Y84.709 E65.04865
G1 X117.596 Y83.862 E65.07401
G1 X77.562 Y123.896 E66.76866
G1 X76.715 Y123.896 E66.79402
G1 X117.596 Y83.015 E68.52453
G1 X117.596 Y82.167 E68.54989
G1 X75.867 Y123.896 E70.31627
G1 X75.020 Y123.896 E70.34163
G1 X117.596 Y81.320 E72.14388
G1 X116.965 Y81.104 E72.16384
G1 X74.173 Y123.896 E73.97524
G1 X73.326 Y123.896 E74.00060
G1 X116.118 Y81.104 E75.81199
G1 X115.270 Y81.104 E75.83735
G1 X72.478 Y123.896 E77.64875
G1 X71.631 Y123.896 E77.67411
G1 X114.423 Y81.104 E79.48550
G1 X113.576 Y81.104 E79.51086
G1 X70.784 Y123.896 E81.32226
G1 X69.936 Y123.896 E81.34762
G1 X112.729 Y81.104 E83.15901
G1 X111.899 Y81.086 E83.18386
