; generated by Slic3r 1.0.0RC1 on 2014-01-12 at 16:57:53

; layer_height = 0.33
; perimeters = 3
; top_solid_layers = 4
; bottom_solid_layers = 4
; fill_density = 0.7
; perimeter_speed = 20
; infill_speed = 20
; travel_speed = 70
; nozzle_diameter = 0.5
; filament_diameter = 2.90
; extrusion_multiplier = 1
; perimeters extrusion width = 0.50mm
; infill extrusion width = 0.62mm
; solid infill extrusion width = 0.62mm
; top infill extrusion width = 0.62mm
; first layer extrusion width = 1.00mm

G21 ; set units to millimeters
M107
M104 S180 ; set temperature
G28 ; home all axes
G1 Z5 F5000 ; lift nozzle
M109 S180 ; wait for temperature to be reached
G90 ; use absolute coordinates
G92 E0
M82 ; use absolute distances for extrusion
G1 F1800.000 E-1.00000
G92 E0
G1 Z0.500 F4200.000
G1 X30.560 Y71.130 F4200.000
G1 E1.00000 F1800.000
G1 X31.860 Y70.740 E1.09172 F360.000
G1 X33.200 Y70.610 E1.18269
G1 X82.200 Y70.610 E4.49389
G1 X142.740 Y73.620 E8.58997
G1 X144.040 Y73.800 E8.67865
G1 X145.270 Y74.230 E8.76670
G1 X146.410 Y74.890 E8.85572
G1 X147.390 Y75.750 E8.94382
G1 X148.200 Y76.780 E9.03237
G1 X148.800 Y77.940 E9.12062
G1 X149.170 Y79.200 E9.20936
G1 X149.290 Y80.500 E9.29759
G1 X149.290 Y123.500 E12.20333
G1 X149.170 Y124.800 E12.29155
G1 X148.800 Y126.060 E12.38029
G1 X148.200 Y127.220 E12.46855
G1 X147.390 Y128.250 E12.55709
G1 X146.410 Y129.110 E12.64520
G1 X145.270 Y129.770 E12.73422
G1 X144.040 Y130.200 E12.82227
G1 X142.740 Y130.380 E12.91095
G1 X82.200 Y133.390 E17.00703
G1 X33.200 Y133.390 E20.31823
G1 X31.860 Y133.260 E20.40920
G1 X30.560 Y132.870 E20.50092
G1 X29.370 Y132.230 E20.59223
G1 X28.330 Y131.370 E20.68342
G1 X27.470 Y130.330 E20.77461
G1 X26.830 Y129.140 E20.86592
G1 X26.440 Y127.840 E20.95764
G1 X26.310 Y126.500 E21.04861
G1 X26.310 Y77.500 E24.35981
G1 X26.440 Y76.160 E24.45079
G1 X26.830 Y74.860 E24.54251
G1 X27.470 Y73.670 E24.63381
G1 X28.330 Y72.630 E24.72501
G1 X29.370 Y71.770 E24.81620
G1 X30.442 Y71.193 E24.89846
G1 F1800.000 E23.89846
G92 E0
G1 X35.485 Y79.785 F4200.000
G1 E1.00000 F1800.000
G1 X82.099 Y79.785 E4.14996 F360.000
G1 X116.099 Y82.785 E6.45646
G1 X120.915 Y82.785 E6.78185
G1 X120.915 Y121.215 E9.37872
G1 X116.099 Y121.215 E9.70411
G1 X82.099 Y124.215 E12.01060
G1 X35.485 Y124.215 E15.16057
G1 X35.485 Y79.919 E18.15384
G1 X34.593 Y78.893 F4200.000
G1 X82.139 Y78.893 E21.36679 F360.000
G1 X116.139 Y81.893 E23.67328
G1 X121.807 Y81.893 E24.05634
G1 X121.807 Y122.107 E26.77386
G1 X116.139 Y122.107 E27.15692
G1 X82.139 Y125.107 E29.46341
G1 X34.593 Y125.107 E32.67636
G1 X34.593 Y79.027 E35.79028
G1 X33.700 Y78.000 F4200.000
G1 X82.178 Y78.000 E39.06620 F252.000
G1 X116.178 Y81.000 E41.37270
G1 X141.910 Y81.000 E43.11152
G1 X141.910 Y83.000 E43.24667
G1 X122.700 Y83.000 E44.54477
G1 X122.700 Y121.000 E47.11264
G1 X141.910 Y121.000 E48.41073
G1 X141.910 Y123.000 E48.54588
G1 X116.178 Y123.000 E50.28470
G1 X82.178 Y126.000 E52.59120
G1 X33.700 Y126.000 E55.86712
G1 X33.700 Y78.134 E59.10170
G1 X34.473 Y78.446 F4200.000
G1 X36.177 Y123.612 F4200.000
G1 X36.088 Y123.523 E59.11030 F1080.000
G1 X36.088 Y122.255 E59.19637
G1 X37.445 Y123.612 E59.32670
G1 X38.714 Y123.612 E59.41277
G1 X36.088 Y120.986 E59.66481
G1 X36.088 Y119.718 E59.75088
G1 X39.982 Y123.612 E60.12465
G1 X41.250 Y123.612 E60.21072
G1 X36.088 Y118.450 E60.70621
G1 X36.088 Y117.182 E60.79228
G1 X42.518 Y123.612 E61.40948
G1 X43.786 Y123.612 E61.49555
G1 X36.088 Y115.914 E62.23448
G1 X36.088 Y114.646 E62.32055
G1 X45.054 Y123.612 E63.18120
G1 X46.322 Y123.612 E63.26727
G1 X36.088 Y113.378 E64.24963
G1 X36.088 Y112.110 E64.33570
G1 X47.590 Y123.612 E65.43979
G1 X48.858 Y123.612 E65.52586
G1 X36.088 Y110.842 E66.75167
G1 X36.088 Y109.574 E66.83774
G1 X50.126 Y123.612 E68.18526
G1 X51.394 Y123.612 E68.27133
G1 X36.088 Y108.306 E69.74058
G1 X36.088 Y107.038 E69.82665
G1 X52.662 Y123.612 E71.41762
G1 X53.930 Y123.612 E71.50369
G1 X36.088 Y105.770 E73.21638
G1 X36.088 Y104.502 E73.30244
G1 X55.198 Y123.612 E75.13685
G1 X56.466 Y123.612 E75.22292
G1 X36.088 Y103.234 E77.17905
G1 X36.088 Y101.966 E77.26512
G1 X57.734 Y123.612 E79.34297
G1 X59.002 Y123.612 E79.42904
G1 X36.088 Y100.698 E81.62861
G1 X36.088 Y99.429 E81.71467
G1 X60.271 Y123.612 E84.03596
G1 X61.539 Y123.612 E84.12203
G1 X36.088 Y98.161 E86.56504
G1 X36.088 Y96.893 E86.65111
G1 X62.807 Y123.612 E89.21584
G1 X64.075 Y123.612 E89.30191
G1 X36.088 Y95.625 E91.98836
G1 X36.088 Y94.357 E92.07443
G1 X65.343 Y123.612 E94.88259
G1 X66.611 Y123.612 E94.96866
G1 X36.088 Y93.089 E97.89855
G1 X36.088 Y91.821 E97.98462
G1 X67.879 Y123.612 E101.03623
G1 X69.147 Y123.612 E101.12230
G1 X36.088 Y90.553 E104.29563
G1 X36.088 Y89.285 E104.38170
G1 X70.415 Y123.612 E107.67675
G1 X71.683 Y123.612 E107.76282
G1 X36.088 Y88.017 E111.17959
G1 X36.088 Y86.749 E111.26565
G1 X72.951 Y123.612 E114.80414
G1 X74.219 Y123.612 E114.89021
G1 X36.088 Y85.481 E118.55042
G1 X36.088 Y84.213 E118.63649
G1 X75.487 Y123.612 E122.41842
G1 X76.755 Y123.612 E122.50449
G1 X36.088 Y82.945 E126.40814
G1 X36.088 Y81.677 E126.49421
G1 X78.023 Y123.612 E130.51958
G1 X79.291 Y123.612 E130.60565
G1 X36.122 Y80.443 E134.74944
G1 X37.335 Y80.388 E134.83184
G1 X80.559 Y123.612 E138.98093
G1 X81.827 Y123.612 E139.06700
G1 X38.603 Y80.388 E143.21609
G1 X39.871 Y80.388 E143.30216
G1 X83.013 Y123.529 E147.44329
G1 X84.178 Y123.427 E147.52269
G1 X41.139 Y80.388 E151.65396
G1 X42.407 Y80.388 E151.74002
G1 X85.343 Y123.324 E155.86142
G1 X86.508 Y123.221 E155.94082
G1 X43.675 Y80.388 E160.05234
G1 X44.943 Y80.388 E160.13841
G1 X87.674 Y123.118 E164.24007
G1 X88.839 Y123.015 E164.31946
G1 X46.211 Y80.388 E168.41125
G1 X47.479 Y80.388 E168.49732
G1 X90.004 Y122.912 E172.57924
G1 X91.169 Y122.810 E172.65863
G1 X48.747 Y80.388 E176.73068
G1 X50.016 Y80.388 E176.81675
G1 X92.335 Y122.707 E180.87893
G1 X93.500 Y122.604 E180.95833
G1 X51.284 Y80.388 E185.01064
G1 X52.552 Y80.388 E185.09671
G1 X94.665 Y122.501 E189.13915
G1 X95.830 Y122.398 E189.21854
G1 X53.820 Y80.388 E193.25112
G1 X55.088 Y80.388 E193.33718
G1 X96.996 Y122.296 E197.35989
G1 X98.161 Y122.193 E197.43928
G1 X56.356 Y80.388 E201.45212
G1 X57.624 Y80.388 E201.53819
G1 X99.326 Y122.090 E205.54115
G1 X100.491 Y121.987 E205.62055
G1 X58.892 Y80.388 E209.61364
G1 X60.160 Y80.388 E209.69971
G1 X101.657 Y121.884 E213.68294
G1 X102.822 Y121.781 E213.76233
G1 X61.428 Y80.388 E217.73569
G1 X62.696 Y80.388 E217.82176
G1 X103.987 Y121.679 E221.78525
G1 X105.152 Y121.576 E221.86464
G1 X63.964 Y80.388 E225.81826
G1 X65.232 Y80.388 E225.90433
G1 X106.317 Y121.473 E229.84808
G1 X107.483 Y121.370 E229.92748
G1 X66.500 Y80.388 E233.86136
G1 X67.768 Y80.388 E233.94743
G1 X108.648 Y121.267 E237.87144
G1 X109.813 Y121.165 E237.95083
G1 X69.036 Y80.388 E241.86497
G1 X70.304 Y80.388 E241.95104
G1 X110.978 Y121.062 E245.85532
G1 X112.144 Y120.959 E245.93471
G1 X71.573 Y80.388 E249.82912
G1 X72.841 Y80.388 E249.91519
G1 X113.309 Y120.856 E253.79972
G1 X114.474 Y120.753 E253.87912
G1 X74.109 Y80.388 E257.75378
G1 X75.377 Y80.388 E257.83985
G1 X115.639 Y120.650 E261.70464
G1 X116.869 Y120.612 E261.78816
G1 X76.645 Y80.388 E265.64928
G1 X77.913 Y80.388 E265.73535
G1 X118.137 Y120.612 E269.59648
G1 X119.405 Y120.612 E269.68254
G1 X79.181 Y80.388 E273.54367
G1 X80.449 Y80.388 E273.62974
G1 X120.312 Y120.251 E277.45619
G1 X120.312 Y118.983 E277.54226
G1 X81.717 Y80.388 E281.24700
G1 X83.073 Y80.476 E281.33925
G1 X120.312 Y117.715 E284.91380
G1 X120.312 Y116.447 E284.99987
G1 X84.464 Y80.599 E288.44091
G1 X85.855 Y80.721 E288.53567
G1 X120.312 Y115.179 E291.84322
G1 X120.312 Y113.911 E291.92929
G1 X87.246 Y80.844 E295.10333
G1 X88.636 Y80.967 E295.19810
G1 X120.312 Y112.643 E298.23864
G1 X120.312 Y111.375 E298.32471
G1 X90.027 Y81.090 E301.23176
G1 X91.418 Y81.212 E301.32652
G1 X120.312 Y110.107 E304.10007
G1 X120.312 Y108.839 E304.18614
G1 X92.809 Y81.335 E306.82618
G1 X94.199 Y81.458 E306.92095
G1 X120.312 Y107.571 E309.42749
G1 X120.312 Y106.302 E309.51356
G1 X95.590 Y81.580 E311.88661
G1 X96.981 Y81.703 E311.98138
G1 X120.312 Y105.034 E314.22092
G1 X120.312 Y103.766 E314.30699
G1 X98.372 Y81.826 E316.41304
G1 X99.763 Y81.949 E316.50781
G1 X120.312 Y102.498 E318.48036
G1 X120.312 Y101.230 E318.56642
G1 X101.153 Y82.071 E320.40547
G1 X102.544 Y82.194 E320.50024
G1 X120.312 Y99.962 E322.20579
G1 X120.312 Y98.694 E322.29186
G1 X103.935 Y82.317 E323.86391
G1 X105.326 Y82.439 E323.95868
G1 X120.312 Y97.426 E325.39723
G1 X120.312 Y96.158 E325.48330
G1 X106.716 Y82.562 E326.78835
G1 X108.107 Y82.685 E326.88311
G1 X120.312 Y94.890 E328.05467
G1 X120.312 Y93.622 E328.14073
G1 X109.498 Y82.808 E329.17879
G1 X110.889 Y82.930 E329.27355
G1 X120.312 Y92.354 E330.17811
G1 X120.312 Y91.086 E330.26418
G1 X112.280 Y83.053 E331.03523
G1 X113.670 Y83.176 E331.12999
G1 X120.312 Y89.818 E331.76755
G1 X120.312 Y88.550 E331.85362
G1 X115.061 Y83.298 E332.35767
G1 X116.418 Y83.388 E332.45000
G1 X120.312 Y87.282 E332.82377
G1 X120.312 Y86.014 E332.90984
G1 X117.686 Y83.388 E333.16188
G1 X118.955 Y83.388 E333.24795
G1 X120.312 Y84.745 E333.37828
G1 X120.312 Y83.477 E333.46435
G1 X120.223 Y83.388 E333.47295
G1 X122.707 Y82.007 F4200.000
G1 X123.908 Y81.900 E333.55740 F360.000
G1 X124.108 Y82.100 E333.57719 F360.000
G1 X125.217 Y81.900 E333.65607 F360.000
G1 X125.417 Y82.100 E333.67586 F360.000
G1 X126.525 Y81.900 E333.75474 F360.000
G1 X126.725 Y82.100 E333.77453 F360.000
G1 X127.833 Y81.900 E333.85342 F360.000
G1 X128.033 Y82.100 E333.87320 F360.000
G1 X129.142 Y81.900 E333.95209 F360.000
G1 X129.342 Y82.100 E333.97188 F360.000
G1 X130.450 Y81.900 E334.05076 F360.000
G1 X130.650 Y82.100 E334.07055 F360.000
G1 X131.759 Y81.900 E334.14943 F360.000
G1 X131.958 Y82.100 E334.16922 F360.000
G1 X133.067 Y81.900 E334.24811 F360.000
G1 X133.267 Y82.100 E334.26789 F360.000
G1 X134.375 Y81.900 E334.34678 F360.000
G1 X134.575 Y82.100 E334.36657 F360.000
G1 X135.684 Y81.900 E334.44545 F360.000
G1 X135.883 Y82.100 E334.46524 F360.000
G1 X136.992 Y81.900 E334.54412 F360.000
G1 X137.192 Y82.100 E334.56391 F360.000
G1 X138.300 Y81.900 E334.64280 F360.000
G1 X138.500 Y82.100 E334.66258 F360.000
G1 X139.609 Y81.900 E334.74147 F360.000
G1 X139.808 Y82.100 E334.76126 F360.000
G1 X140.917 Y81.900 E334.84014 F360.000
G1 X141.009 Y81.993 E334.84930 F360.000
G1 X122.800 Y82.100 F4200.000
G1 X122.707 Y82.007 E334.85846 F360.000
G1 F1800.000 E333.85846
G92 E0
G1 X148.197 Y77.598 F4200.000
G1 X123.908 Y121.900 F4200.000
G1 E1.00000 F1800.000
G1 X124.108 Y122.100 E1.01979 F360.000
G1 X125.217 Y121.900 E1.09867 F360.000
G1 X125.417 Y122.100 E1.11846 F360.000
G1 X126.525 Y121.900 E1.19735 F360.000
G1 X126.725 Y122.100 E1.21713 F360.000
G1 X127.833 Y121.900 E1.29602 F360.000
G1 X128.033 Y122.100 E1.31581 F360.000
G1 X129.142 Y121.900 E1.39469 F360.000
G1 X129.342 Y122.100 E1.41448 F360.000
G1 X130.450 Y121.900 E1.49336 F360.000
G1 X130.650 Y122.100 E1.51315 F360.000
G1 X131.759 Y121.900 E1.59204 F360.000
G1 X131.958 Y122.100 E1.61183 F360.000
G1 X133.067 Y121.900 E1.69071 F360.000
G1 X133.267 Y122.100 E1.71050 F360.000
G1 X134.375 Y121.900 E1.78938 F360.000
G1 X134.575 Y122.100 E1.80917 F360.000
G1 X135.684 Y121.900 E1.88805 F360.000
G1 X135.883 Y122.100 E1.90784 F360.000
G1 X136.992 Y121.900 E1.98673 F360.000
G1 X137.192 Y122.100 E2.00652 F360.000
G1 X138.300 Y121.900 E2.08540 F360.000
G1 X138.500 Y122.100 E2.10519 F360.000
G1 X139.609 Y121.900 E2.18407 F360.000
G1 X139.808 Y122.100 E2.20386 F360.000
G1 X140.917 Y121.900 E2.28274 F360.000
G1 X141.009 Y121.993 E2.29191 F360.000
G1 X123.908 Y121.900 F4200.000
G1 X122.707 Y122.007 E2.37635 F360.000
G1 X122.800 Y122.100 E2.38551 F360.000
G1 F1800.000 E1.38551
G92 E0
G1 Z0.830 F4200.000
G1 X121.950 Y121.750 F4200.000
G1 E1.00000 F1800.000
G1 X141.507 Y121.750 E1.48855 F1200
G1 X141.507 Y122.250 E1.50104
G1 X116.145 Y122.250 E2.13460
G1 X82.145 Y125.250 E2.98723
G1 X34.450 Y125.250 E4.17867
G1 X34.450 Y78.750 E5.34025
G1 X82.145 Y78.750 E6.53169
G1 X116.145 Y81.750 E7.38432
G1 X141.507 Y81.750 E8.01788
G1 X141.507 Y82.250 E8.03037
G1 X121.950 Y82.250 E8.51892
G1 X121.950 Y121.675 E9.50377
G1 X122.450 Y121.250 F4200.000
G1 X142.007 Y121.250 E9.99232 F1200
G1 X142.007 Y122.750 E10.02979
G1 X116.167 Y122.750 E10.67529
G1 X82.167 Y125.750 E11.52792
G1 X33.950 Y125.750 E12.73240
G1 X33.950 Y78.250 E13.91897
G1 X82.167 Y78.250 E15.12344
G1 X116.167 Y81.250 E15.97607
G1 X142.007 Y81.250 E16.62157
G1 X142.007 Y82.750 E16.65904
G1 X122.450 Y82.750 E17.14759
G1 X122.450 Y121.175 E18.10746
G1 X122.950 Y120.750 F4200.000
G1 X142.410 Y120.750 E18.59357 F840
M106 S255
G1 X142.507 Y120.750 E18.59648 F3600
G1 X142.507 Y123.250 E18.67079
G1 X142.410 Y123.250 E18.67370
M107
G1 X116.189 Y123.250 E19.32870 F840
G1 X82.189 Y126.250 E20.18133
G1 X33.450 Y126.250 E21.39885
G1 X33.450 Y77.750 E22.61039
G1 X82.189 Y77.750 E23.82791
G1 X116.189 Y80.750 E24.68054
G1 X142.410 Y80.750 E25.33554
M106 S255
G1 X142.507 Y80.750 E25.33845 F3600
G1 X142.507 Y83.250 E25.41276
G1 X142.410 Y83.250 E25.41567
M107
G1 X122.950 Y83.250 E25.90178 F840
G1 X122.950 Y120.675 E26.83667
G1 X122.950 Y121.250 F4200.000
G1 X121.596 Y121.836 F4200.000
G1 X121.536 Y121.896 E26.83920 F3600
G1 X120.690 Y121.896 E26.86449
G1 X121.596 Y120.990 E26.90279
G1 X121.596 Y120.144 E26.92809
G1 X119.844 Y121.896 E27.00216
G1 X118.998 Y121.896 E27.02746
G1 X121.596 Y119.298 E27.13730
G1 X121.596 Y118.452 E27.16260
G1 X118.152 Y121.896 E27.30822
G1 X117.305 Y121.896 E27.33351
G1 X121.596 Y117.605 E27.51490
G1 X121.596 Y116.759 E27.54020
G1 X116.459 Y121.896 E27.75736
G1 X115.563 Y121.946 E27.78419
G1 X121.596 Y115.913 E28.03924
G1 X121.596 Y115.067 E28.06454
G1 X114.635 Y122.028 E28.35882
G1 X113.707 Y122.110 E28.38667
G1 X121.596 Y114.221 E28.72019
G1 X121.596 Y113.374 E28.74548
G1 X112.779 Y122.192 E29.11823
G1 X111.851 Y122.274 E29.14608
G1 X121.596 Y112.528 E29.55807
G1 X121.596 Y111.682 E29.58336
G1 X110.923 Y122.355 E30.03458
G1 X109.995 Y122.437 E30.06244
G1 X121.596 Y110.836 E30.55289
G1 X121.596 Y109.990 E30.57818
G1 X109.067 Y122.519 E31.10787
G1 X108.139 Y122.601 E31.13572
G1 X121.596 Y109.144 E31.70465
G1 X121.596 Y108.297 E31.72994
G1 X107.210 Y122.683 E32.33810
G1 X106.282 Y122.765 E32.36595
G1 X121.596 Y107.451 E33.01334
G1 X121.596 Y106.605 E33.03863
G1 X105.354 Y122.847 E33.72526
G1 X104.426 Y122.929 E33.75311
G1 X121.596 Y105.759 E34.47897
G1 X121.596 Y104.913 E34.50427
G1 X103.498 Y123.011 E35.26936
G1 X102.570 Y123.092 E35.29721
G1 X121.596 Y104.067 E36.10154
G1 X121.596 Y103.220 E36.12683
G1 X101.642 Y123.174 E36.97040
G1 X100.714 Y123.256 E36.99825
G1 X121.596 Y102.374 E37.88104
G1 X121.596 Y101.528 E37.90634
G1 X99.786 Y123.338 E38.82837
G1 X98.858 Y123.420 E38.85622
G1 X121.596 Y100.682 E39.81748
G1 X121.596 Y99.836 E39.84278
G1 X97.930 Y123.502 E40.84328
G1 X97.002 Y123.584 E40.87113
G1 X121.596 Y98.990 E41.91086
G1 X121.596 Y98.143 E41.93616
G1 X96.074 Y123.666 E43.01512
G1 X95.146 Y123.748 E43.04298
G1 X121.596 Y97.297 E44.16118
G1 X121.596 Y96.451 E44.18647
G1 X94.218 Y123.829 E45.34391
G1 X93.290 Y123.911 E45.37176
G1 X121.596 Y95.605 E46.56843
G1 X121.596 Y94.759 E46.59372
G1 X92.361 Y123.993 E47.82963
G1 X91.433 Y124.075 E47.85748
G1 X121.596 Y93.912 E49.13262
G1 X121.596 Y93.066 E49.15791
G1 X90.505 Y124.157 E50.47229
G1 X89.577 Y124.239 E50.50014
G1 X121.596 Y92.220 E51.85374
G1 X121.596 Y91.374 E51.87904
G1 X88.649 Y124.321 E53.27188
G1 X87.721 Y124.403 E53.29973
G1 X121.596 Y90.528 E54.73181
G1 X121.596 Y89.682 E54.75710
G1 X86.793 Y124.485 E56.22841
G1 X85.865 Y124.566 E56.25626
G1 X121.596 Y88.835 E57.76681
G1 X121.596 Y87.989 E57.79210
G1 X84.937 Y124.648 E59.34188
G1 X84.009 Y124.730 E59.36973
G1 X121.596 Y87.143 E60.95875
G1 X121.596 Y86.297 E60.98404
G1 X83.081 Y124.812 E62.61229
G1 X82.153 Y124.894 E62.64014
G1 X121.596 Y85.451 E64.30762
G1 X121.596 Y84.605 E64.33291
G1 X81.305 Y124.896 E66.03626
G1 X80.458 Y124.896 E66.06155
G1 X121.596 Y83.758 E67.80066
G1 X121.596 Y82.912 E67.82596
G1 X79.612 Y124.896 E69.60084
G1 X78.766 Y124.896 E69.62614
G1 X121.547 Y82.115 E71.43473
G1 X120.712 Y82.104 E71.45970
